svg/nature/bird_fill.svg

<?xml version="1.0" encoding="UTF-8"?>
<svg width="24px" height="24px" viewBox="0 0 24 24" version="1.1" xmlns="http://www.w3.org/2000/svg" xmlns:xlink="http://www.w3.org/1999/xlink">
    <title>bird_fill</title>
    <g id="Icon" stroke="none" stroke-width="1" fill="none" fill-rule="evenodd">
        <g id="Nature" transform="translate(-912.000000, -50.000000)">
            <g id="bird_fill" transform="translate(912.000000, 50.000000)">
                <path d="M24,0 L24,24 L0,24 L0,0 L24,0 Z M12.5935,23.2578 L12.5819,23.2595 L12.5109,23.295 L12.4919,23.2987 L12.4767,23.295 L12.4057,23.2595 C12.3958,23.2564 12.387,23.259 12.3821,23.2649 L12.378,23.2758 L12.3609,23.7031 L12.3659,23.7235 L12.3769,23.7357 L12.4805,23.8097 L12.4953,23.8136 L12.5071,23.8097 L12.6107,23.7357 L12.6233,23.7197 L12.6267,23.7031 L12.6096,23.2758 C12.6076,23.2657 12.601,23.2593 12.5935,23.2578 Z M12.8584,23.1453 L12.8445,23.1473 L12.6598,23.2397 L12.6499,23.2499 L12.6472,23.2611 L12.6651,23.6906 L12.6699,23.7034 L12.6784,23.7105 L12.8793,23.8032 C12.8914,23.8069 12.9022,23.803 12.9078,23.7952 L12.9118,23.7812 L12.8777,23.1665 C12.8753,23.1546 12.8674,23.147 12.8584,23.1453 Z M12.143,23.1473 C12.1332,23.1424 12.1222,23.1453 12.1156,23.1526 L12.1099,23.1665 L12.0758,23.7812 C12.0751,23.7927 12.0828,23.8019 12.0926,23.8046 L12.1083,23.8032 L12.3092,23.7105 L12.3186,23.7024 L12.3225,23.6906 L12.3404,23.2611 L12.3372,23.2485 L12.3278,23.2397 L12.143,23.1473 Z" id="MingCute" fill-rule="nonzero"></path>
                <path d="M15.0000011,2 C16.9723077,2 18.6763092,3.14134615 19.4902404,4.79868286 L19.5836,5 L21.0000011,5 C21.3688,5 21.7077,5.20298 21.8817,5.52814 C22.03395,5.812655 22.0383578,6.15028906 21.9000818,6.43582426 L21.8321,6.5547 L20.2802,8.88245 C20.16045,9.06213333 20.1026444,9.27471944 20.1135542,9.48813657 L20.1284,9.61603 L20.2691,10.39 C21.2579047,15.8282781 17.1607498,20.840974 11.6764889,20.9962931 L11.4143,21 L3.00000106,21 C2.63121,21 2.29235,20.797 2.11833,20.4719 C1.9660625,20.18735 1.96162953,19.8497422 2.09994639,19.5641873 L2.16795,19.4453 L9.61325,8.27735 C9.86543,7.89908 10.0000011,7.45463 10.0000011,7 C10.0000011,4.23858 12.2386,2 15.0000011,2 Z M11.5,11 C11.229,11 10.8369,11.0698 10.4645,11.209 C10.0891,11.3494 9.88162,11.5044 9.81038,11.5872 L6.42571,16.6642 C7.42415,16.3768 8.49136,16.061 9.48943,15.6703 C10.5563,15.2527 11.467,14.7781 12.0979,14.2241 C12.7098,13.6869 13,13.1322 13,12.5 C13,11.6716 12.3284,11 11.5,11 Z M15,6 C14.4477,6 14,6.44772 14,7 C14,7.55228 14.4477,8 15,8 C15.5523,8 16,7.55228 16,7 C16,6.44772 15.5523,6 15,6 Z" id="形状" fill="#09244B"></path>
            </g>
        </g>
    </g>
</svg>

<svg xmlns="http://www.w3.org/2000/svg" width="24" height="24"><g fill="none" fill-rule="evenodd"><path d="M24 0v24H0V0h24ZM12.594 23.258l-.012.002-.071.035-.02.004-.014-.004-.071-.036c-.01-.003-.019 0-.024.006l-.004.01-.017.428.005.02.01.013.104.074.015.004.012-.004.104-.074.012-.016.004-.017-.017-.427c-.002-.01-.009-.017-.016-.018Zm.264-.113-.014.002-.184.093-.01.01-.003.011.018.43.005.012.008.008.201.092c.012.004.023 0 .029-.008l.004-.014-.034-.614c-.003-.012-.01-.02-.02-.022Zm-.715.002a.023.023 0 0 0-.027.006l-.006.014-.034.614c0 .012.007.02.017.024l.015-.002.201-.093.01-.008.003-.011.018-.43-.003-.012-.01-.01-.184-.092Z"/><path fill="#09244B" d="M15 2a5 5 0 0 1 4.49 2.799l.094.201H21a1 1 0 0 1 .9 1.436l-.068.119-1.552 2.327a1 1 0 0 0-.166.606l.014.128.141.774c.989 5.438-3.108 10.451-8.593 10.606l-.262.004H3a1 1 0 0 1-.9-1.436l.068-.119L9.613 8.277C9.865 7.9 10 7.455 10 7a5 5 0 0 1 5-5Zm-3.5 9c-.271 0-.663.07-1.036.209-.375.14-.582.295-.654.378l-3.384 5.077c.998-.287 2.065-.603 3.063-.994 1.067-.417 1.978-.892 2.609-1.446.612-.537.902-1.092.902-1.724a1.5 1.5 0 0 0-1.5-1.5ZM15 6a1 1 0 1 0 0 2 1 1 0 0 0 0-2Z"/></g></svg>
